app/public/logos/usdt.svg

<?xml version="1.0" encoding="UTF-8" standalone="no"?><!-- Generator: Gravit.io --><svg xmlns="http://www.w3.org/2000/svg" xmlns:xlink="http://www.w3.org/1999/xlink" style="isolation:isolate" viewBox="0 0 350 350" width="350pt" height="350pt"><defs><clipPath id="_clipPath_PTe2ZHsSCAYQIQZhdFlLzzHpVs3f9zmc"><rect width="350" height="350"/></clipPath></defs><g clip-path="url(#_clipPath_PTe2ZHsSCAYQIQZhdFlLzzHpVs3f9zmc)"><rect width="350" height="350" style="fill:rgb(81,175,148)"/><g><path d=" M 196.485 182.305 L 196.485 182.305 C 195.285 182.395 189.085 182.765 175.255 182.765 C 164.255 182.765 156.445 182.435 153.705 182.305 L 153.705 182.305 C 111.195 180.435 79.465 173.035 79.465 164.175 C 79.465 155.315 111.195 147.925 153.705 146.025 L 153.705 174.935 C 156.485 175.135 164.445 175.605 175.445 175.605 C 188.645 175.605 195.255 175.055 196.445 174.945 L 196.445 146.045 C 238.865 147.935 270.525 155.335 270.525 164.175 C 270.525 173.015 238.875 180.415 196.445 182.295 L 196.445 182.295 L 196.485 182.305 Z  M 196.485 143.055 L 196.485 117.185 L 255.685 117.185 L 255.685 77.735 L 94.505 77.735 L 94.505 117.185 L 153.695 117.185 L 153.695 143.045 C 105.585 145.255 69.405 154.785 69.405 166.205 C 69.405 177.625 105.585 187.145 153.695 189.365 L 153.695 272.265 L 196.475 272.265 L 196.475 189.335 C 244.475 187.125 280.595 177.605 280.595 166.195 C 280.595 154.785 244.505 145.265 196.475 143.045 L 196.475 143.045 L 196.485 143.055 Z  M 196.485 143.055" fill-rule="evenodd" fill="rgb(255,255,255)"/></g></g></svg>

<svg xmlns="http://www.w3.org/2000/svg" width="350pt" height="350pt" style="isolation:isolate" viewBox="0 0 350 350"><defs><clipPath id="a"><path d="M0 0h350v350H0z"/></clipPath></defs><g clip-path="url(#a)"><path d="M0 0h350v350H0z" style="fill:#51af94"/><path fill="#FFF" fill-rule="evenodd" d="M196.485 182.305c-1.2.09-7.4.46-21.23.46-11 0-18.81-.33-21.55-.46-42.51-1.87-74.24-9.27-74.24-18.13s31.73-16.25 74.24-18.15v28.91c2.78.2 10.74.67 21.74.67 13.2 0 19.81-.55 21-.66v-28.9c42.42 1.89 74.08 9.29 74.08 18.13s-31.65 16.24-74.08 18.12zm0-39.25v-25.87h59.2v-39.45H94.505v39.45h59.19v25.86c-48.11 2.21-84.29 11.74-84.29 23.16s36.18 20.94 84.29 23.16v82.9h42.78v-82.93c48-2.21 84.12-11.73 84.12-23.14s-36.09-20.93-84.12-23.15zm0 0"/></g></svg>
